static/logos/mural-glyph-color.svg

<svg width="50" height="50" viewBox="0 0 50 50" fill="none" xmlns="http://www.w3.org/2000/svg">
<g clip-path="url(#clip0_1_1906)">
<path d="M50 1.46694C50.0009 1.27194 49.9631 1.0787 49.8889 0.898382C49.8146 0.718063 49.7054 0.554232 49.5675 0.416346C49.4297 0.278461 49.2658 0.169251 49.0855 0.0950228C48.9052 0.0207942 48.7119 -0.0169835 48.517 -0.0161296H1.48308C1.28808 -0.0169835 1.09485 0.0207942 0.914526 0.0950228C0.734207 0.169251 0.570376 0.278461 0.43249 0.416346C0.294604 0.554232 0.185395 0.718063 0.111167 0.898382C0.036938 1.0787 -0.000839704 1.27194 1.41574e-05 1.46694V48.5331C-0.000839704 48.7281 0.036938 48.9213 0.111167 49.1016C0.185395 49.2819 0.294604 49.4458 0.43249 49.5837C0.570376 49.7215 0.734207 49.8308 0.914526 49.905C1.09485 49.9792 1.28808 50.017 1.48308 50.0161H36.5194L50 36.5363V1.46694Z" fill="#FF0061"/>
<path opacity="0.3" d="M36.9136 36.9976L23.9297 49.9814H36.5176L49.9652 36.5363" fill="black"/>
<path d="M49.9963 36.5032H37.9987C37.8039 36.5025 37.6109 36.5403 37.4308 36.6144C37.2507 36.6885 37.087 36.7975 36.9492 36.9351C36.8114 37.0727 36.7021 37.2362 36.6277 37.4162C36.5533 37.5962 36.5152 37.7891 36.5156 37.9839V49.9839L49.9963 36.5032Z" fill="#FF5BA0"/>
<path d="M34.8357 17.6169V32.6798C34.8367 32.7494 34.8237 32.8184 34.7975 32.8828C34.7714 32.9472 34.7326 33.0058 34.6834 33.055C34.6342 33.1041 34.5757 33.1429 34.5113 33.1691C34.4468 33.1953 34.3778 33.2082 34.3083 33.2073H30.3857C30.3162 33.2082 30.2471 33.1953 30.1827 33.1691C30.1183 33.1429 30.0597 33.1041 30.0106 33.055C29.9614 33.0058 29.9226 32.9472 29.8964 32.8828C29.8703 32.8184 29.8573 32.7494 29.8583 32.6798V25.1613C28.2454 27.3702 26.6615 29.5452 25.0131 31.7863C24.6841 31.3581 20.3002 25.1944 20.0696 24.7992C20.0696 25.096 20.0696 30.8637 20.0365 32.6766C20.0375 32.7461 20.0245 32.8152 19.9983 32.8796C19.9722 32.944 19.9334 33.0026 19.8842 33.0517C19.835 33.1009 19.7765 33.1397 19.7121 33.1659C19.6476 33.192 19.5786 33.205 19.5091 33.204H15.7228C15.6533 33.205 15.5842 33.192 15.5198 33.1659C15.4554 33.1397 15.3968 33.1009 15.3477 33.0517C15.2985 33.0026 15.2597 32.944 15.2335 32.8796C15.2074 32.8152 15.1944 32.7461 15.1954 32.6766V17.5806C15.1948 17.5114 15.2081 17.4427 15.2345 17.3787C15.2608 17.3146 15.2997 17.2564 15.3488 17.2076C15.398 17.1588 15.4563 17.1203 15.5206 17.0943C15.5848 17.0684 15.6535 17.0555 15.7228 17.0564H19.1833C19.2675 17.0604 19.3497 17.0832 19.4239 17.1231C19.4982 17.163 19.5625 17.2191 19.6123 17.2871L24.9518 24.6371L30.355 17.2871C30.4048 17.2191 30.4692 17.163 30.5434 17.1231C30.6176 17.0832 30.6999 17.0604 30.7841 17.0564H34.2776C34.6075 17.0895 34.8381 17.3202 34.8381 17.6169H34.8357Z" fill="white"/>
</g>
<defs>
<clipPath id="clip0_1_1906">
<rect width="50" height="50" fill="white"/>
</clipPath>
</defs>
</svg>

<svg xmlns="http://www.w3.org/2000/svg" width="64" height="64" fill="none" viewBox="0 0 50 50"><g clip-path="url(#a)"><path fill="#FF0061" d="M50 1.467a1.476 1.476 0 0 0-1.483-1.483H1.483A1.477 1.477 0 0 0 0 1.467v47.066a1.476 1.476 0 0 0 1.483 1.483H36.52L50 36.536V1.466Z"/><path fill="#000" d="M36.914 36.998 23.93 49.98h12.588l13.447-13.445" opacity=".3"/><path fill="#FF5BA0" d="M49.996 36.503H38a1.479 1.479 0 0 0-1.483 1.48v12l13.48-13.48Z"/><path fill="#fff" d="M34.836 17.617V32.68a.519.519 0 0 1-.528.527h-3.922a.52.52 0 0 1-.528-.527V25.16c-1.613 2.21-3.197 4.384-4.845 6.625-.329-.428-4.713-6.592-4.943-6.987 0 .297 0 6.065-.034 7.878a.52.52 0 0 1-.527.527h-3.786a.52.52 0 0 1-.528-.527V17.58a.518.518 0 0 1 .528-.525h3.46a.565.565 0 0 1 .43.231l5.339 7.35 5.403-7.35a.566.566 0 0 1 .43-.23h3.493c.33.033.56.263.56.56h-.002Z"/></g><defs><clipPath id="a"><path fill="#fff" d="M0 0h50v50H0z"/></clipPath></defs></svg>
